X:1
T: The Maid of Craigmaddie
C:Nathaniel Gow
R:Jig
Q:180
K:Gm
M:6/8
L:1/16
|:F=E|D2d2d2 d3edc|B2G2G2 G4AB|A2c2f2 a2f2cB|A2F2F2 F3GF=E|
D2d2d2 d3edc|B2G2G2 G4g2|d2g2b2 d2^f2a2|g6G4:|
bc'|d'2b2g2 d'2b2g2|d2g2g2 g4fg|a2f2d2 c2f2d2|c2A2F2 F4bc'|
d'2b2g2 d'2b2g2|d2g2g2 g4fe|d2c2B2 c2B2A2|G6 G4bc'|
d'2b2g2 d'2b2g2|d2g2g2 g4=e2|f=efaga fefdcB|A2F2F2 F4A2|
G2B2B2 A2c2c2|B2d2d2 c2e2e2|d2B2d2 c2B2A2|G6G4||
